!!!SOCIAL_FUNCTION:	war songs
!!!PDT:	1932
!!!OTL: No_121_War_Song_Concerning_the_Owls.krn
!!!REG: Wisconsin
!!!LANG: Non-Tone
!!!LING_GROUP: Algonquin
**kern
*staff1
=1-
*clefF4
*k[b-]
*M3/4
2r
8D\L
8A\J
=2!|:
4F\
8F\
8r
8A\L
8F\J
=3
4D\
4D\
8D\L
8E\J
=4||
*M2/4
8F\L
8D\J
8D\L
8F\J
=5
16D\LK
8.D\J
8D\L
8F\J
=6||
=
*M3/4
4D\
8D\
8r
8D\L
8A\J
=7:|!
*M2/4
4D\
8D\
8r
==
*-
